static/images/logo_re_nl.svg

<?xml version="1.0" encoding="UTF-8"?>
<svg xmlns="http://www.w3.org/2000/svg" xmlns:xlink="http://www.w3.org/1999/xlink" width="125pt" height="22pt" viewBox="0 0 125 22" version="1.1">
<g>
<path fill="#FFFFFF" d="
M27.02,13.98v3.105h0.664c0.977,0,1.629,-0.203,1.629,-1.559c0,-1.344,-0.652,-1.547,-1.629,-1.547ZM25.773,12.922h2.031c1.629,0,2.797,0.609,2.797,2.605c0,1.398,-0.68,2.074,-1.535,2.387l1.875,3.824h-1.426l-1.656,-3.594h-0.84v3.594h-1.246v-8.816
M32.293,12.922h4.125v1.059h-2.875v2.699h2.32v1.043h-2.32v2.961h2.875v1.055h-4.125Z
M37.516,17.332c0,-3.297,0.719,-4.574,2.863,-4.574c0.648,0,1.234,0.164,1.52,0.328v1.152c-0.328,-0.176,-0.898,-0.352,-1.438,-0.352c-1.289,0,-1.656,0.582,-1.656,3.445c0,2.887,0.395,3.457,1.656,3.457c0.555,0,1.191,-0.188,1.516,-0.379v1.152c-0.281,0.164,-0.961,0.34,-1.57,0.34c-2.32,0.016,-2.891,-1.273,-2.891,-4.57
M47.336,17.738h-2.688v4h-1.246v-8.816h1.246v3.758h2.688v-3.758h1.246v8.816h-1.246Z
M49.625,12.922h5.059v1.059h-1.91v7.758h-1.25v-7.758h-1.898Z
M60.465,17.332c0,-3.473,0.922,-4.574,3.211,-4.574c0.652,0,1.344,0.18,1.645,0.355v1.152c-0.328,-0.191,-0.949,-0.395,-1.547,-0.395c-1.465,0,-2.023,0.543,-2.023,3.461c0,2.887,0.395,3.484,1.668,3.484c0.395,0,0.723,-0.055,0.965,-0.121v-2.945h-1.301v-1.055h2.551v4.758c-0.262,0.164,-1.289,0.449,-2.199,0.449c-2.387,0,-2.969,-1.246,-2.969,-4.57
M67.473,12.922h4.125v1.059h-2.875v2.699h2.32v1.043h-2.32v2.961h2.875v1.055h-4.125Z
M73.238,12.922h1.246v7.762h2.742v1.055h-3.988Z
M78.418,12.922h4.125v1.059h-2.875v2.699h2.316v1.043h-2.316v2.961h2.875v1.055h-4.125Z
M84.184,12.922h4.121v1.059h-2.875v2.699h2.32v1.043h-2.32v2.961h2.875v1.055h-4.121Z
M91.195,13.98v3.105h0.664c0.977,0,1.625,-0.203,1.625,-1.559c0,-1.344,-0.648,-1.547,-1.625,-1.547ZM89.945,12.922h2.035c1.629,0,2.793,0.609,2.793,2.605c0,1.398,-0.676,2.074,-1.531,2.387l1.871,3.824h-1.422l-1.656,-3.594h-0.84v3.594h-1.25v-8.816
M97.719,13.953v6.754h0.961c1.273,0,1.656,-0.582,1.656,-3.375c0,-2.797,-0.383,-3.379,-1.656,-3.379ZM96.469,12.922h2.305c2.309,0,2.852,1.234,2.852,4.41c0,3.133,-0.559,4.406,-2.852,4.406h-2.305v-8.816
M107.184,17.738h-2.688v4h-1.246v-8.816h1.246v3.758h2.688v-3.758h1.25v8.816h-1.25Z
M110.395,12.922h4.125v1.059h-2.875v2.699h2.32v1.043h-2.32v2.961h2.875v1.055h-4.125Z
M116.16,21.738h1.246v-8.816h-1.246Z
M120.621,13.953v6.754h0.965c1.273,0,1.652,-0.582,1.652,-3.375c0,-2.797,-0.379,-3.379,-1.652,-3.379ZM119.375,12.922h2.305c2.305,0,2.848,1.234,2.848,4.41c0,3.133,-0.555,4.406,-2.848,4.406h-2.305v-8.816
M25.773,0.48h3.988v1.059h-2.742v2.699h2.199v1.043h-2.199v4.016h-1.246Z
M31.633,6.246h1.938l-0.367,-1.469c-0.188,-0.73,-0.434,-1.855,-0.582,-2.832c-0.164,0.977,-0.422,2.102,-0.609,2.832ZM31.969,0.48h1.289l2.348,8.816h-1.301l-0.516,-1.996h-2.402l-0.5,1.996h-1.266l2.348,-8.816
M36.242,4.887c0,-3.297,0.719,-4.57,2.859,-4.57c0.652,0,1.238,0.164,1.52,0.324v1.152c-0.324,-0.176,-0.895,-0.352,-1.438,-0.352c-1.285,0,-1.652,0.586,-1.652,3.445c0,2.891,0.391,3.461,1.652,3.461c0.559,0,1.195,-0.191,1.52,-0.379v1.152c-0.285,0.16,-0.961,0.34,-1.57,0.34c-2.32,0.012,-2.891,-1.277,-2.891,-4.574
M41.918,6.637v-6.156h1.246v6.211c0,1.305,0.449,1.684,1.359,1.684c0.906,0,1.355,-0.379,1.355,-1.684v-6.211h1.25v6.156c0,2.008,-0.844,2.824,-2.605,2.824c-1.793,0,-2.605,-0.789,-2.605,-2.824
M49.023,0.48h1.25v7.758h2.738v1.059h-3.988Z
M52.578,0.48h5.059v1.059h-1.914v7.758h-1.246v-7.758h-1.898Z
M58.68,0.48h4.125v1.059h-2.875v2.699h2.316v1.043h-2.316v2.957h2.875v1.059h-4.125Z
M64.445,9.297h1.246v-8.816h-1.246Z
M66.734,0.48h5.059v1.059h-1.91v7.758h-1.246v-7.758h-1.902Z
M8.918,16.754l-3.734,-8.191h-1.191l-3.73,8.191h1.367l2.961,-6.492l2.957,6.492Z
M21.52,16.754l-3.734,-8.191h-1.188l-3.734,8.191h1.367l2.961,-6.492l2.961,6.492Z
M57.824,13.828c0.551,0,1.07,0.18,1.309,0.367v-1.125c-0.238,-0.145,-0.824,-0.309,-1.418,-0.309c-1.656,0,-2.566,0.941,-2.566,2.309c0,1.137,0.484,1.684,1.258,2.355l0.711,0.613c0.586,0.488,0.949,0.867,0.949,1.602c0,0.855,-0.566,1.195,-1.414,1.195c-0.645,0,-1.184,-0.18,-1.492,-0.391v1.145c0.273,0.156,0.84,0.316,1.602,0.312c1.652,-0.004,2.562,-0.941,2.566,-2.305c0,-1.137,-0.484,-1.688,-1.262,-2.355l-0.707,-0.613c-0.59,-0.504,-0.953,-0.867,-0.953,-1.598c0.004,-0.863,0.566,-1.199,1.418,-1.203
M8.918,20.492h-8.656l1.246,1.246h6.16Z
M21.52,20.492h-8.656l1.246,1.246h6.164Z
M0.262,19.246h8.656v-1.246h-8.656Z
M4.562,7.316h12.656l-0.57,-1.246h-11.52Z
M12.863,19.246h8.656v-1.246h-8.656Z
M12.863,0.48h-3.945v1.246h1.348v3.098h1.246v-3.098h1.352Z
"/>
</g>
</svg>

<?xml version="1.0" encoding="UTF-8"?>
<svg xmlns="http://www.w3.org/2000/svg" xmlns:xlink="http://www.w3.org/1999/xlink" width="125pt" height="22pt" viewBox="0 0 125 22" version="1.1">
<g id="surface1">
<path fill="#FFFFFF" d="M27.02,13.98L27.02,17.086L27.684,17.086C28.66,17.086,29.312,16.883,29.312,15.527C29.312,14.184,28.66,13.98,27.684,13.98Z M25.773,12.922L27.805,12.922C29.434,12.922,30.602,13.531,30.602,15.527C30.602,16.926,29.922,17.602,29.066,17.914L30.941,21.738L29.516,21.738L27.859,18.145L27.02,18.145L27.02,21.738L25.773,21.738L25.773,12.922"/>
<path fill="#FFFFFF" d="M32.293,12.922L36.418,12.922L36.418,13.98L33.543,13.98L33.543,16.68L35.863,16.68L35.863,17.723L33.543,17.723L33.543,20.684L36.418,20.684L36.418,21.738L32.293,21.738L32.293,12.922"/>
<path fill="#FFFFFF" d="M37.516,17.332C37.516,14.035,38.234,12.758,40.379,12.758C41.027,12.758,41.613,12.922,41.898,13.086L41.898,14.238C41.57,14.062,41,13.887,40.461,13.887C39.172,13.887,38.805,14.469,38.805,17.332C38.805,20.219,39.199,20.789,40.461,20.789C41.016,20.789,41.652,20.602,41.977,20.41L41.977,21.562C41.695,21.727,41.016,21.902,40.406,21.902C38.086,21.918,37.516,20.629,37.516,17.332"/>
<path fill="#FFFFFF" d="M47.336,17.738L44.648,17.738L44.648,21.738L43.402,21.738L43.402,12.922L44.648,12.922L44.648,16.68L47.336,16.68L47.336,12.922L48.582,12.922L48.582,21.738L47.336,21.738L47.336,17.738"/>
<path fill="#FFFFFF" d="M49.625,12.922L54.684,12.922L54.684,13.98L52.773,13.98L52.773,21.738L51.523,21.738L51.523,13.98L49.625,13.98L49.625,12.922"/>
<path fill="#FFFFFF" d="M60.465,17.332C60.465,13.859,61.387,12.758,63.676,12.758C64.328,12.758,65.02,12.938,65.32,13.113L65.32,14.266C64.992,14.074,64.371,13.871,63.773,13.871C62.309,13.871,61.75,14.414,61.75,17.332C61.75,20.219,62.145,20.816,63.418,20.816C63.812,20.816,64.141,20.762,64.383,20.695L64.383,17.75L63.082,17.75L63.082,16.695L65.633,16.695L65.633,21.453C65.371,21.617,64.344,21.902,63.434,21.902C61.047,21.902,60.465,20.656,60.465,17.332"/>
<path fill="#FFFFFF" d="M67.473,12.922L71.598,12.922L71.598,13.98L68.723,13.98L68.723,16.68L71.043,16.68L71.043,17.723L68.723,17.723L68.723,20.684L71.598,20.684L71.598,21.738L67.473,21.738L67.473,12.922"/>
<path fill="#FFFFFF" d="M73.238,12.922L74.484,12.922L74.484,20.684L77.227,20.684L77.227,21.738L73.238,21.738L73.238,12.922"/>
<path fill="#FFFFFF" d="M78.418,12.922L82.543,12.922L82.543,13.98L79.668,13.98L79.668,16.68L81.984,16.68L81.984,17.723L79.668,17.723L79.668,20.684L82.543,20.684L82.543,21.738L78.418,21.738L78.418,12.922"/>
<path fill="#FFFFFF" d="M84.184,12.922L88.305,12.922L88.305,13.98L85.43,13.98L85.43,16.68L87.75,16.68L87.75,17.723L85.43,17.723L85.43,20.684L88.305,20.684L88.305,21.738L84.184,21.738L84.184,12.922"/>
<path fill="#FFFFFF" d="M91.195,13.98L91.195,17.086L91.859,17.086C92.836,17.086,93.484,16.883,93.484,15.527C93.484,14.184,92.836,13.98,91.859,13.98Z M89.945,12.922L91.98,12.922C93.609,12.922,94.773,13.531,94.773,15.527C94.773,16.926,94.098,17.602,93.242,17.914L95.113,21.738L93.691,21.738L92.035,18.145L91.195,18.145L91.195,21.738L89.945,21.738L89.945,12.922"/>
<path fill="#FFFFFF" d="M97.719,13.953L97.719,20.707L98.68,20.707C99.953,20.707,100.336,20.125,100.336,17.332C100.336,14.535,99.953,13.953,98.68,13.953Z M96.469,12.922L98.773,12.922C101.082,12.922,101.625,14.156,101.625,17.332C101.625,20.465,101.066,21.738,98.773,21.738L96.469,21.738L96.469,12.922"/>
<path fill="#FFFFFF" d="M107.184,17.738L104.496,17.738L104.496,21.738L103.25,21.738L103.25,12.922L104.496,12.922L104.496,16.68L107.184,16.68L107.184,12.922L108.434,12.922L108.434,21.738L107.184,21.738L107.184,17.738"/>
<path fill="#FFFFFF" d="M110.395,12.922L114.52,12.922L114.52,13.98L111.645,13.98L111.645,16.68L113.965,16.68L113.965,17.723L111.645,17.723L111.645,20.684L114.52,20.684L114.52,21.738L110.395,21.738L110.395,12.922"/>
<path fill="#FFFFFF" d="M116.16,21.738L117.406,21.738L117.406,12.922L116.16,12.922Z M116.16,21.738"/>
<path fill="#FFFFFF" d="M120.621,13.953L120.621,20.707L121.586,20.707C122.859,20.707,123.238,20.125,123.238,17.332C123.238,14.535,122.859,13.953,121.586,13.953Z M119.375,12.922L121.68,12.922C123.984,12.922,124.527,14.156,124.527,17.332C124.527,20.465,123.973,21.738,121.68,21.738L119.375,21.738L119.375,12.922"/>
<path fill="#FFFFFF" d="M25.773,0.48L29.762,0.48L29.762,1.539L27.02,1.539L27.02,4.238L29.219,4.238L29.219,5.281L27.02,5.281L27.02,9.297L25.773,9.297L25.773,0.48"/>
<path fill="#FFFFFF" d="M31.633,6.246L33.57,6.246L33.203,4.777C33.016,4.047,32.77,2.922,32.621,1.945C32.457,2.922,32.199,4.047,32.012,4.777Z M31.969,0.48L33.258,0.48L35.605,9.297L34.305,9.297L33.789,7.301L31.387,7.301L30.887,9.297L29.621,9.297L31.969,0.48"/>
<path fill="#FFFFFF" d="M36.242,4.887C36.242,1.59,36.961,0.316,39.102,0.316C39.754,0.316,40.34,0.48,40.621,0.641L40.621,1.793C40.297,1.617,39.727,1.441,39.184,1.441C37.898,1.441,37.531,2.027,37.531,4.887C37.531,7.777,37.922,8.348,39.184,8.348C39.742,8.348,40.379,8.156,40.703,7.969L40.703,9.121C40.418,9.281,39.742,9.461,39.133,9.461C36.812,9.473,36.242,8.184,36.242,4.887"/>
<path fill="#FFFFFF" d="M41.918,6.637L41.918,0.48L43.164,0.48L43.164,6.691C43.164,7.996,43.613,8.375,44.523,8.375C45.43,8.375,45.879,7.996,45.879,6.691L45.879,0.48L47.129,0.48L47.129,6.637C47.129,8.645,46.285,9.461,44.523,9.461C42.73,9.461,41.918,8.672,41.918,6.637"/>
<path fill="#FFFFFF" d="M49.023,0.48L50.273,0.48L50.273,8.238L53.012,8.238L53.012,9.297L49.023,9.297L49.023,0.48"/>
<path fill="#FFFFFF" d="M52.578,0.48L57.637,0.48L57.637,1.539L55.723,1.539L55.723,9.297L54.477,9.297L54.477,1.539L52.578,1.539L52.578,0.48"/>
<path fill="#FFFFFF" d="M58.68,0.48L62.805,0.48L62.805,1.539L59.93,1.539L59.93,4.238L62.246,4.238L62.246,5.281L59.93,5.281L59.93,8.238L62.805,8.238L62.805,9.297L58.68,9.297L58.68,0.48"/>
<path fill="#FFFFFF" d="M64.445,9.297L65.691,9.297L65.691,0.48L64.445,0.48Z M64.445,9.297"/>
<path fill="#FFFFFF" d="M66.734,0.48L71.793,0.48L71.793,1.539L69.883,1.539L69.883,9.297L68.637,9.297L68.637,1.539L66.734,1.539L66.734,0.48"/>
<path fill="#FFFFFF" d="M8.918,16.754L5.184,8.562L3.992,8.562L0.262,16.754L1.629,16.754L4.59,10.262L7.547,16.754L8.918,16.754"/>
<path fill="#FFFFFF" d="M21.52,16.754L17.785,8.562L16.598,8.562L12.863,16.754L14.23,16.754L17.191,10.262L20.152,16.754L21.52,16.754"/>
<path fill="#FFFFFF" d="M57.824,13.828C58.375,13.828,58.895,14.008,59.133,14.195L59.133,13.07C58.895,12.926,58.309,12.762,57.715,12.762C56.059,12.762,55.148,13.703,55.148,15.07C55.148,16.207,55.633,16.754,56.406,17.426L57.117,18.039C57.703,18.527,58.066,18.906,58.066,19.641C58.066,20.496,57.5,20.836,56.652,20.836C56.008,20.836,55.469,20.656,55.16,20.445L55.16,21.59C55.434,21.746,56,21.906,56.762,21.902C58.414,21.898,59.324,20.961,59.328,19.598C59.328,18.461,58.844,17.91,58.066,17.242L57.359,16.629C56.77,16.125,56.406,15.762,56.406,15.031C56.41,14.168,56.973,13.832,57.824,13.828"/>
<path fill="#FFFFFF" d="M8.918,20.492L0.262,20.492L1.508,21.738L7.668,21.738L8.918,20.492"/>
<path fill="#FFFFFF" d="M21.52,20.492L12.863,20.492L14.109,21.738L20.273,21.738L21.52,20.492"/>
<path fill="#FFFFFF" d="M0.262,19.246L8.918,19.246L8.918,18L0.262,18Z M0.262,19.246"/>
<path fill="#FFFFFF" d="M4.562,7.316L17.219,7.316L16.648,6.07L5.129,6.07L4.562,7.316"/>
<path fill="#FFFFFF" d="M12.863,19.246L21.52,19.246L21.52,18L12.863,18Z M12.863,19.246"/>
<path fill="#FFFFFF" d="M12.863,0.48L8.918,0.48L8.918,1.727L10.266,1.727L10.266,4.824L11.512,4.824L11.512,1.727L12.863,1.727L12.863,0.48"/>
</g>
</svg>
